src/pos-icons/crown-outline.svg

<svg height="24" viewBox="0 0 24 24" width="24" xmlns="http://www.w3.org/2000/svg"><path d="m12 8 3 5.2 3-2.7-.7 3.5h-10.6l-.7-3.5 3 2.7zm0-4-3.5 6-5.5-5 2 11h14l2-11-5.5 5zm7 14h-14v1c0 .6.4 1 1 1h12c.6 0 1-.4 1-1z"/></svg>

<?xml version="1.0" encoding="UTF-8"?><!DOCTYPE svg PUBLIC "-//W3C//DTD SVG 1.1//EN" "http://www.w3.org/Graphics/SVG/1.1/DTD/svg11.dtd"><svg xmlns="http://www.w3.org/2000/svg" xmlns:xlink="http://www.w3.org/1999/xlink" version="1.1" id="mdi-crown-outline" width="24" height="24" viewBox="0 0 24 24"><path d="M12 8L15 13.2L18 10.5L17.3 14H6.7L6 10.5L9 13.2L12 8M12 4L8.5 10L3 5L5 16H19L21 5L15.5 10L12 4M19 18H5V19C5 19.6 5.4 20 6 20H18C18.6 20 19 19.6 19 19V18Z" /></svg>
